X:1
T: Doun the Burnie
C:
R:Reel
Q: 232
K:C
M:4/4
L:1/8
|:c2 ed c2 Gc|d2 fe dc AB|c2 ed c2 Gc|Ac GF EC C2|
c2 ed c2 Gc|d2 fe dc AB|c2 ed c2 Gc|Ac GF EC C2|
c2 ef g2 ec|de fg af dB|c2 ef g2 ec|df ed ec cG|
c2 ef g2 ec|de fg af dB|ce de cG EG|FA GF EC C2:|
